svg/s/BS.svg

<svg width="16" height="12" fill="none" xmlns="http://www.w3.org/2000/svg">
  <mask id="a" maskUnits="userSpaceOnUse" x="0" y="0" width="16" height="12">
    <path fill="#fff" d="M0 0h16v12H0z"/>
  </mask>
  <g mask="url(#a)" fill-rule="evenodd" clip-rule="evenodd">
    <path d="M0 0h16v12H0V0z" fill="#FECA00"/>
    <path d="M0 0v4h16V0H0zm0 8v4h16V8H0z" fill="#3CB1CF"/>
    <path d="M0 0l8 6-8 6V0z" fill="#272727"/>
  </g>
</svg>

<svg width="16" height="12" viewBox="0 0 16 12" fill="none" xmlns="http://www.w3.org/2000/svg">
<g clip-path="url(#clip0_270_54964)">
<rect width="16" height="12" fill="white"/>
<path fill-rule="evenodd" clip-rule="evenodd" d="M0 0H16V12H0V0Z" fill="#FECA00"/>
<path fill-rule="evenodd" clip-rule="evenodd" d="M0 0V4H16V0H0Z" fill="#3CB1CF"/>
<path fill-rule="evenodd" clip-rule="evenodd" d="M0 8V12H16V8H0Z" fill="#3CB1CF"/>
<path fill-rule="evenodd" clip-rule="evenodd" d="M0 0L8 6L0 12V0Z" fill="#272727"/>
</g>
<defs>
<clipPath id="clip0_270_54964">
<rect width="16" height="12" fill="white"/>
</clipPath>
</defs>
</svg>
